assets/images/simple-illustrations/simple-illustration__fastmoney.svg

<svg viewBox="0 0 48 48" fill="none" xmlns="http://www.w3.org/2000/svg">
<path d="M45.2512 31.5088V15.3286L18.5279 15.3286V31.5088H45.2512Z" fill="#00B268"/>
<path d="M31.8889 27.0136C35.0381 27.0136 37.5911 25.3786 37.5911 23.3618C37.5911 21.345 35.0381 19.71 31.8889 19.71C28.7397 19.71 26.1868 21.345 26.1868 23.3618C26.1868 25.3786 28.7397 27.0136 31.8889 27.0136Z" fill="#5BE3AA"/>
<path d="M42.5553 19.1033C43.1914 19.1033 43.7071 18.6003 43.7071 17.9798C43.7071 17.3593 43.1914 16.8562 42.5553 16.8562C41.9192 16.8562 41.4036 17.3593 41.4036 17.9798C41.4036 18.6003 41.9192 19.1033 42.5553 19.1033Z" fill="#5BE3AA"/>
<path d="M42.5368 30.011C43.1729 30.011 43.6885 29.508 43.6885 28.8875C43.6885 28.267 43.1729 27.7639 42.5368 27.7639C41.9007 27.7639 41.385 28.267 41.385 28.8875C41.385 29.508 41.9007 30.011 42.5368 30.011Z" fill="#5BE3AA"/>
<path d="M21.0985 30.011C21.7346 30.011 22.2503 29.508 22.2503 28.8875C22.2503 28.267 21.7346 27.7639 21.0985 27.7639C20.4624 27.7639 19.9468 28.267 19.9468 28.8875C19.9468 29.508 20.4624 30.011 21.0985 30.011Z" fill="#5BE3AA"/>
<path d="M21.093 19.1033C21.7291 19.1033 22.2448 18.6003 22.2448 17.9798C22.2448 17.3593 21.7291 16.8562 21.093 16.8562C20.4569 16.8562 19.9413 17.3593 19.9413 17.9798C19.9413 18.6003 20.4569 19.1033 21.093 19.1033Z" fill="#5BE3AA"/>
<path d="M45.2124 31.4347V15.3286L18.4891 15.3286V31.4347H45.2124Z" stroke="#002140" stroke-linecap="round" stroke-linejoin="round"/>
<path d="M31.8505 27.0662C35.0815 27.0662 37.7007 25.4161 37.7007 23.3805C37.7007 21.345 35.0815 19.6949 31.8505 19.6949C28.6196 19.6949 26.0004 21.345 26.0004 23.3805C26.0004 25.4161 28.6196 27.0662 31.8505 27.0662Z" stroke="#002140" stroke-linecap="round" stroke-linejoin="round"/>
<path d="M42.536 30.1758C43.2652 30.1758 43.8564 29.5991 43.8564 28.8878C43.8564 28.1764 43.2652 27.5998 42.536 27.5998C41.8068 27.5998 41.2157 28.1764 41.2157 28.8878C41.2157 29.5991 41.8068 30.1758 42.536 30.1758Z" stroke="#002140" stroke-linecap="round" stroke-linejoin="round"/>
<path d="M42.536 19.2754C43.2652 19.2754 43.8564 18.6987 43.8564 17.9874C43.8564 17.2761 43.2652 16.6994 42.536 16.6994C41.8068 16.6994 41.2157 17.2761 41.2157 17.9874C41.2157 18.6987 41.8068 19.2754 42.536 19.2754Z" stroke="#002140" stroke-linecap="round" stroke-linejoin="round"/>
<path d="M21.0979 30.1758C21.8271 30.1758 22.4183 29.5991 22.4183 28.8878C22.4183 28.1764 21.8271 27.5998 21.0979 27.5998C20.3687 27.5998 19.7776 28.1764 19.7776 28.8878C19.7776 29.5991 20.3687 30.1758 21.0979 30.1758Z" stroke="#002140" stroke-linecap="round" stroke-linejoin="round"/>
<path d="M21.0979 19.2754C21.8271 19.2754 22.4183 18.6987 22.4183 17.9874C22.4183 17.2761 21.8271 16.6994 21.0979 16.6994C20.3687 16.6994 19.7776 17.2761 19.7776 17.9874C19.7776 18.6987 20.3687 19.2754 21.0979 19.2754Z" stroke="#002140" stroke-linecap="round" stroke-linejoin="round"/>
<path d="M23.6718 17.8368H39.9032" stroke="#002140" stroke-linecap="round" stroke-linejoin="round"/>
<path d="M20.8308 26.1524V20.7218" stroke="#002140" stroke-linecap="round" stroke-linejoin="round"/>
<path d="M39.9032 28.9995H23.6229" stroke="#002140" stroke-linecap="round" stroke-linejoin="round"/>
<path d="M42.7542 20.6841V26.1712" stroke="#002140" stroke-linecap="round" stroke-linejoin="round"/>
<path d="M20.9683 26.1685C22.4379 26.1685 23.6282 27.3296 23.6282 28.7633C23.6282 28.8172 23.627 28.8712 23.6231 28.9252" stroke="#002140" stroke-linecap="round" stroke-linejoin="round"/>
<path d="M20.9683 20.6853C22.4379 20.6853 23.6282 19.5241 23.6282 18.0905C23.6282 18.0365 23.627 17.9825 23.6231 17.9286" stroke="#002140" stroke-linecap="round" stroke-linejoin="round"/>
<path d="M42.5577 26.1685C41.0881 26.1685 39.8977 27.3296 39.8977 28.7633C39.8977 28.8172 39.899 28.8712 39.9029 28.9252" stroke="#002140" stroke-linecap="round" stroke-linejoin="round"/>
<path d="M42.5577 20.6853C41.0881 20.6853 39.8977 19.5241 39.8977 18.0905C39.8977 18.0365 39.899 17.9825 39.9029 17.9286" stroke="#002140" stroke-linecap="round" stroke-linejoin="round"/>
<path d="M0.932617 23.885L3.57715 23.5799C3.57715 23.5799 4.88076 23.3126 5.21535 24.3444C5.54994 25.3763 4.58221 26.5601 3.42788 27.1338C3.42788 27.1338 4.0237 27.3635 5.02875 27.0962C6.0338 26.8288 10.3165 24.5742 11.6201 24.9947C12.9238 25.4153 12.4772 27.0962 11.8441 27.8983C11.2109 28.7005 9.86999 29.9232 9.83267 30.5345C9.83267 30.5345 11.4335 30.3437 11.7694 30.3437C12.1053 30.3437 19.4405 31.1848 19.5525 23.1983C19.6644 17.6585 16.9452 15.8621 15.2324 15.8621C13.5196 15.8621 12.3279 16.4734 12.3279 16.4734C12.3279 16.4734 15.419 17.4664 15.0831 19.2239C14.7485 20.9814 13.3703 20.37 12.5506 19.721C11.7308 19.072 8.49174 16.6266 7.07618 18.6125C7.07618 18.6125 8.6037 20.2796 8.37978 20.8671C8.15587 21.4546 7.63468 21.6693 7.03886 21.6316C6.44303 21.594 1.56576 20.7893 0.932617 23.885Z" fill="#F68DFE"/>
<path d="M18.7181 27.0349C17.2691 28.3166 16.0028 26.839 14.5872 27.9349C14.3389 27.0185 15.9771 25.9477 15.3066 24.6874C14.6361 23.427 13.1099 24.725 11.9929 23.6944C11.9929 23.6944 12.6942 23.363 12.4369 22.4265C12.1795 21.49 11.3842 21.4398 10.2891 21.3356C10.9132 19.6434 15.1342 22.6612 16.3001 21.7197C17.4673 20.777 16.0517 19.7965 16.0517 19.7965C16.0517 19.7965 17.5779 18.1156 18.8816 19.1475C18.8816 19.1475 19.6756 21.0582 19.552 23.1973C19.4285 25.3364 18.7168 27.0349 18.7168 27.0349H18.7181Z" fill="#FBCCFF"/>
<path d="M19.4768 22.778C19.4768 31.9483 13.0218 29.5544 9.74542 30.6239C9.69524 29.6046 13.4195 27.5157 12.1789 25.428C10.9371 23.3392 4.95437 28.3316 3.39082 27.1089C3.39082 27.1089 5.94398 25.7959 5.23877 24.312C4.53357 22.8295 2.03445 23.8463 0.775879 23.9492C2.19917 19.7213 7.41231 22.3198 8.15742 21.4536C8.90252 20.5874 7.82798 19.3321 6.96577 18.7032C8.80343 15.6464 12.9768 20.9138 14.2662 20.369C15.5557 19.8242 15.705 17.5319 12.2767 16.4636C12.7245 16.0029 19.4781 13.6605 19.4781 22.7793" stroke="#002140" stroke-linecap="round" stroke-linejoin="round"/>
<path d="M29.8429 13.6728H16.8325" stroke="#002140" stroke-linecap="round" stroke-linejoin="round"/>
<path d="M15.7135 14.5301H10.2867" stroke="#002140" stroke-linecap="round" stroke-linejoin="round"/>
<path d="M20.9025 12.3497H14.8362" stroke="#002140" stroke-linecap="round" stroke-linejoin="round"/>
<path d="M29.8429 33.0616H16.8325" stroke="#002140" stroke-linecap="round" stroke-linejoin="round"/>
<path d="M15.7135 32.2041H10.2867" stroke="#002140" stroke-linecap="round" stroke-linejoin="round"/>
<path d="M20.9025 34.3847H14.8362" stroke="#002140" stroke-linecap="round" stroke-linejoin="round"/>
</svg>

<svg xmlns="http://www.w3.org/2000/svg" fill="none" viewBox="0 0 48 48"><path fill="#00b268" d="M45.251 31.509v-16.18H18.528v16.18z"/><path fill="#5be3aa" d="M31.889 27.014c3.15 0 5.702-1.635 5.702-3.652s-2.553-3.652-5.702-3.652-5.702 1.635-5.702 3.652 2.553 3.652 5.702 3.652m10.666-7.911c.636 0 1.152-.503 1.152-1.123s-.516-1.124-1.152-1.124-1.151.503-1.151 1.124c0 .62.515 1.123 1.151 1.123m-.018 10.908c.636 0 1.151-.503 1.151-1.123 0-.621-.515-1.124-1.151-1.124s-1.152.503-1.152 1.124c0 .62.516 1.123 1.152 1.123m-21.438 0c.636 0 1.151-.503 1.151-1.123 0-.621-.515-1.124-1.151-1.124-.637 0-1.152.503-1.152 1.124 0 .62.515 1.123 1.152 1.123m-.006-10.908c.636 0 1.152-.503 1.152-1.123s-.516-1.124-1.152-1.124-1.152.503-1.152 1.124c0 .62.516 1.123 1.152 1.123"/><path stroke="#002140" stroke-linecap="round" stroke-linejoin="round" d="M45.212 31.435V15.329H18.49v16.106z"/><path stroke="#002140" stroke-linecap="round" stroke-linejoin="round" d="M31.85 27.066c3.231 0 5.85-1.65 5.85-3.685s-2.619-3.686-5.85-3.686S26 21.345 26 23.38s2.62 3.685 5.85 3.685m10.686 3.111c.73 0 1.32-.577 1.32-1.288s-.59-1.288-1.32-1.288-1.32.576-1.32 1.288c0 .711.59 1.288 1.32 1.288m0-10.901c.73 0 1.32-.576 1.32-1.288 0-.71-.59-1.288-1.32-1.288s-1.32.577-1.32 1.288.59 1.288 1.32 1.288M21.098 30.176c.73 0 1.32-.577 1.32-1.288s-.59-1.288-1.32-1.288-1.32.576-1.32 1.288c0 .711.59 1.288 1.32 1.288m0-10.901c.73 0 1.32-.576 1.32-1.288 0-.71-.59-1.288-1.32-1.288s-1.32.577-1.32 1.288.59 1.288 1.32 1.288m2.574-1.438h16.231M20.83 26.152v-5.43M39.903 29h-16.28m19.131-8.316v5.487m-21.786-.002c1.47 0 2.66 1.16 2.66 2.594q0 .081-.005.162m-2.655-8.24c1.47 0 2.66-1.16 2.66-2.594q0-.082-.005-.162m18.935 8.24c-1.47 0-2.66 1.16-2.66 2.594q0 .081.005.162m2.655-8.24c-1.47 0-2.66-1.16-2.66-2.594q0-.082.005-.162"/><path fill="#f68dfe" d="m.933 23.885 2.644-.305s1.304-.267 1.638.764c.335 1.032-.633 2.216-1.787 2.79 0 0 .596.23 1.6-.038 1.006-.267 5.289-2.522 6.592-2.101 1.304.42.857 2.101.224 2.903-.633.803-1.974 2.025-2.011 2.637 0 0 1.6-.191 1.936-.191s7.672.84 7.783-7.146c.112-5.54-2.607-7.336-4.32-7.336-1.712 0-2.904.611-2.904.611s3.091.993 2.755 2.75c-.335 1.758-1.713 1.147-2.532.498-.82-.649-4.06-3.094-5.475-1.108 0 0 1.528 1.667 1.304 2.254-.224.588-.745.802-1.341.765s-5.473-.843-6.106 2.253"/><path fill="#fbccff" d="M18.718 27.035c-1.449 1.282-2.715-.196-4.13.9-.25-.916 1.39-1.987.719-3.248-.67-1.26-2.197.038-3.314-.993 0 0 .701-.331.444-1.267-.257-.937-1.053-.987-2.148-1.091.624-1.693 4.845 1.325 6.011.384 1.167-.943-.248-1.923-.248-1.923s1.526-1.681 2.83-.65c0 0 .794 1.911.67 4.05-.123 2.14-.835 3.838-.835 3.838z"/><path stroke="#002140" stroke-linecap="round" stroke-linejoin="round" d="M19.477 22.778c0 9.17-6.455 6.776-9.732 7.846-.05-1.02 3.675-3.108 2.434-5.196-1.242-2.089-7.225 2.904-8.788 1.68 0 0 2.553-1.312 1.848-2.796s-3.205-.466-4.463-.363c1.423-4.228 6.636-1.63 7.381-2.495.746-.867-.329-2.122-1.191-2.75 1.837-3.058 6.01 2.21 7.3 1.665s1.439-2.837-1.99-3.905c.449-.461 7.202-2.803 7.202 6.315m10.365-9.106h-13.01m-1.119.857h-5.427m10.616-2.18h-6.067m15.007 20.712h-13.01m-1.119-.858h-5.427m10.616 2.181h-6.067"/></svg>
